!!!OTL: 200l. Was Gott thut, das ist wohlgethan.
!!!ODT: 1690
!!!ARE: Europa, Mitteleuropa, Deutschland
!!!SCT: E2001
!!!TXL: @@DE
!!!YEM: Copyright 1995, estate of Helmut Schaffrath.
**kern	**text
*ICvox	*
*M4/4	*
*met(c)	*
*k[f#]	*
*G:	*
!LO:TX:a:t=Mel. ʒuerſt 1690 gedr.	!
{4d	Was
=1	=1
4g	Gott
4a	thut,
4b	das
4cc	iſt
=2	=2
4dd	wohl-
4cc	-ge-
4b	-than,
4r	.
=3	=3
4r}	.
{4ee	es
4dd	bleibt
4cc	ge-
=4	=4
4b	-recht
4b	ſein
2a	Wil-
=5	=5
2g	-le.
4r}	.
{4d	Wie
=6	=6
4g	er
4a	fängt
4b	mei-
4cc	-ne
=7	=7
4dd	Sa-
4cc	-chen
4b	an,
4r	.
=8	=8
4r}	.
{4ee	ſo
4dd	will
4cc	ich
=9	=9
4b	hal-
4b	-ten
2a	ſtil-
=10	=10
2g	-le.
4r}	.
{4dd	Er
=11	=11
4ee	iſt
4ee	mein
4a	Gott,
4a	der
=12	=12
4dd	in
4dd	der
4g	Noth
8r}	.
{8b	mich
=13	=13
4a	wohl
4g	weiß
4f#	ʒu
4f#	er-
=14	=14
2e	-hal-
4d}	-ten,
{4dd	drum
=15	=15
4cc	laß
4b	ich
4a	ihn
4b	nur
=16	=16
2a	wal-
4g}	-ten.
==	==
!!!AGN: geistlich, Dank -, Lob - Lied, Choral
!!!ONB: ESAC (Essen Associative Code) Database: ERK3
!!!AMT: simple quadruple
!!!AIN: vox
!!!EED: Helmut Schaffrath
!!!EEV: 1.0
!!!GTL: Geistliche Lieder. 2. Gottesglaube und Gottesverehrung in Liedern: Bitt-, Lob-, Dank- und Trostlieder, nebst einigen Lehrgesaengen. 
!!!URL-scan: https://rosdok.uni-rostock.de/mcrviewer/recordIdentifier/rosdok_ppn745177999/iview2/phys_0711.iview2?x=164.7319773713482&y=294.54572095908225&scale=0.7014306698522891&rotation=0&layout=singlePageLayout
!!!ENC: Anna Maria Matuszewska
!!!EEV: 2025/10/01
*-	*-
